X:1
T:Title
%%score ( 1 2 ) { 3 | 4 }
L:1/8
Q:1/4=105
M:4/4
K:E
V:1 treble nm="Grand Piano, Soprano"
V:2 treble 
V:3 bass nm="Choir Pad, Navarre, 77.77 D"
V:4 bass 
V:1
 [EG]3 [EA] [EB]2 [Ge]2 | [Fd]2 c-[Fc] [GB]4 | [B,E]3 [DF] [EG]2 [FB]2 | [EA]2 [EG]2 [DF]4 | %4
w: By~Arranged~by~Daniel~Brink~Towner * * *||||
 [EG]3 [EA] [EB]2 [Ee]2 | [Fd]2 c-[Ec] [DB]4 | E3 [DF] [EG]2 [FA]2 | [EG]2 [DF]2 E4 | [Ac]6 [Ac]2 | %9
w: |||||
 [GB]>[Ac] [GB]>[EG] [GB]4 | [FA]3 [EG] [DF]2 [Dc]2 | [EB]2 [EG]2 [GB]4 | [Ac]6 [Ac]2 | %13
w: ||||
 [GB]>[Ac] [GB]>[EG] [GB]4 | [Ac]3 [Ac] [Ad]2 [Ge]2 | [EG]2 [DF]2 E4- | E4 z4 |] %17
w: ||||
V:2
 x8 | z2 .E2 z4 | x8 | x8 | x8 | z2 .F2 z4 | x8 | x8 | x8 | x8 | x8 | x8 | x8 | x8 | x8 | x8 | %16
 x8 |] %17
V:3
 B,3 B, B,2 B,2 | B,2[K:treble] CD E4 | G,3 A, B,2 D2 | C2[K:bass] B,2 B,4 | B,3 B, B,2 ^A,C | %5
 B,2 ^A,2 B,2 =A,2 | B,3 B, B,2 C2 | B,2 A,2 G,4 | E6 E2 | E>E E>B, E4 | D3 E[K:bass] B,2 A,2 | %11
 G,2 B,2 E4 | E6 E2 | E>E E>B, E4 | E3 E[K:bass] B,2 B,2 | B,2 A,2 G,4- | G,4 z4 |] %17
V:4
 E,3 F, G,2 E,2 | F,G, A,2 E,4 | z2 z F, E,2 B,,2 | C,2 E,2 B,,4 | E,3 F, G,2 C,2 | D,E, F,2 z4 | %6
 G,3 F, E,2 A,,2 | B,,2 B,,2 E,4 | A,2 A,2 A,2 A,2 | E,>E, E,>E, E,4 | B,,3 B,, B,,2 B,,2 | %11
 E,2 E,2 E,4 | A,2 A,2 A,2 A,2 | E,>E, E,>E, E,4 | A,3 A, F,2 E,2 | B,,2 B,,2 E,4- | E,4 z4 |] %17

